X:1756
T:Jim Boulton's Fancy
M:2/4
L:1/16
N:"collected by J. O'Neill"
B:O'Neill's 1756
R:Hornpipe
Z:"Transcribed by Bob Safranek, rjs@gsp.org"
K:A
    E2  | ABcA  BcdB  | cdec A2(Bc) | defe dcBA | GABG EFGE |
           ABcA  BcdB  | cdec  defg  | agae fdBG | A2A2 A2  :|
|: (cd) | ecec a2(cd) | ecec A2(Bc) | defe dcBA | GABG EFGE |
          ABcA  BcdB  | cdec  defg  | agae fdBG | A2A2 A2  :|


